X: 28230
T: Mrs. Forbes
R: reel
M: 4/4
K: Amajor
c|(3AAA (AF)E2(EF)|(3AAA (Ac) dBBc|(3AAA (AF)E2(EF)|A2(Bd) cAAc:|
(ef)ec (ef)a2|(ef)ec fBBc|(ef)ec (ef)af|ecdB cAAc|
(ef)ec (ef)a2|(ef)ec fBBc|(ef)ed ceaf|ecdB cAA||

